X:1422
T:So treiben wir den Winter aus
C:anon.
O:Germany
N:Written down in 1545
Z:Transcribed by Frank Nordberg - http://www.musicaviva.com
F:http://abc.musicaviva.com/tunes/germany/so-treiben-wir-den-winter.abc
M:3/4
L:1/4
K:Ddor
D|A2A|G2G|A2A|D2D|
w:So trei-ben wir den Win-ter aus durch
A2G|c2B|A2G|A2A|
w:uns'-re Stadt und Tor hin-aus mit
d2d|B2B|c3|A2D|
w:sein Be-trug und Li-sten, den
F2G|A2G|FE2|D2|]
w:rech-ten An-ti-chri-sten.
W:
W:So treiben wir den Winter aus durch
W:uns're Stadt und Tor hinaus mit
W:sein Betrug und Listen, den
W:rechten Antichristen.
W:
W:
W:  From Musica Viva - http://www.musicaviva.com
W:  the Internet center for free sheet music downloads.


